Pods/ProtonCore-UIFoundations/libraries/UIFoundations/Sources/Assets.xcassets/Images/IconSet/ic-folder-arrow-in-filled.imageset/ic-folder-arrow-in-filled.svg

<svg width="24" height="24" viewBox="0 0 24 24" fill="none" xmlns="http://www.w3.org/2000/svg">
<path fill-rule="evenodd" clip-rule="evenodd" d="M1.5 6C1.5 4.34315 2.84315 3 4.5 3H8.75C9.39911 3 10.0307 3.21053 10.55 3.6L12.67 5.19C12.7219 5.22895 12.7851 5.25 12.85 5.25H19.5C21.1569 5.25 22.5 6.59315 22.5 8.25V18C22.5 19.6569 21.1569 21 19.5 21H4.5C2.84315 21 1.5 19.6569 1.5 18V13.5H10.9393L9.21967 15.2197C8.92678 15.5126 8.92678 15.9874 9.21967 16.2803C9.51256 16.5732 9.98744 16.5732 10.2803 16.2803L13.0682 13.4925C13.4782 13.0824 13.4782 12.4176 13.0682 12.0075L10.2803 9.21967C9.98744 8.92678 9.51256 8.92678 9.21967 9.21967C8.92678 9.51256 8.92678 9.98744 9.21967 10.2803L10.9393 12H1.5V6Z" fill="#0C0C14"/>
</svg>

<svg xmlns="http://www.w3.org/2000/svg" width="24" height="24" viewBox="0 0 24 24">
  <g class="ic-folder-arrow-in-filled">
    <path fill-rule="evenodd" d="M1.5 6a3 3 0 0 1 3-3h4.25a3 3 0 0 1 1.8.6l2.12 1.59a.3.3 0 0 0 .18.06h6.65a3 3 0 0 1 3 3V18a3 3 0 0 1-3 3h-15a3 3 0 0 1-3-3v-4.5h9.44l-1.72 1.72a.75.75 0 1 0 1.06 1.06l2.788-2.788a1.05 1.05 0 0 0 0-1.485L10.28 9.22a.75.75 0 1 0-1.06 1.06L10.94 12H1.5V6Z" class="Icon"/>
  </g>
</svg>
